src/icons/main-template-library.svg

<svg enable-background="new 0 0 10 14" viewBox="0 0 10 14" xmlns="http://www.w3.org/2000/svg"><path d="m6 0h-5.3c-.4 0-.7.3-.7.7v12.6c0 .4.3.7.7.7h8.7c.4 0 .7-.3.7-.7v-9.1zm2.7 12.6h-7.4v-11.2h4v3.5h3.3v7.7z" fill="#4d5969"/></svg>

<?xml version="1.0" encoding="utf-8"?>
<!-- Generator: Adobe Illustrator 20.1.0, SVG Export Plug-In . SVG Version: 6.00 Build 0)  -->
<svg version="1.1" id="Layer_1" xmlns="http://www.w3.org/2000/svg" xmlns:xlink="http://www.w3.org/1999/xlink" x="0px" y="0px"
	 viewBox="0 0 10 14" style="enable-background:new 0 0 10 14;" xml:space="preserve">
<style type="text/css">
	.st0{fill:#4D5969;}
</style>
<title>HDL/Icon/Standard/template_library</title>
<desc>Created with Sketch.</desc>
<g id="Colors">
	<g id="Main-Icons" transform="translate(-118.000000, -736.000000)">
		<g id="Template-Library" transform="translate(100.000000, 718.000000)">
			<g id="HDL_x2F_Icon_x2F_Standard_x2F_template_x5F_library" transform="translate(18.000000, 18.000000)">
				<path id="Shape" class="st0" d="M6,0H0.7C0.3,0,0,0.3,0,0.7v12.6C0,13.7,0.3,14,0.7,14h8.7c0.4,0,0.7-0.3,0.7-0.7V4.2L6,0z
					 M8.7,12.6H1.3V1.4h4v3.5h3.3V12.6z"/>
			</g>
		</g>
	</g>
</g>
</svg>
